posts/2023-04-12/visual-book-recommender/imgs-web/y_true.svg

<svg xmlns="http://www.w3.org/2000/svg" xmlns:xlink="http://www.w3.org/1999/xlink" width="171.64" height="43.424" viewBox="0 -1449.5 9483.1 2399" xmlns:v="https://vecta.io/nano"><defs><path id="A" d="M21 287q0 14 15 48 15 34 48 71 33 37 74 36 41 0 66-23 25-23 26-64-2-19-3-21 0-3-16-46-16-43-33-97-17-54-16-86 0-43 14-60 14-17 42-18 23 0 43 11 20 11 31 23 11 12 27 33 0 1 5 20 5 19 14 59 9 40 19 74 38 150 42 157 13 27 43 27 13 0 21-7 8-7 11-12 3-5 2-9 0-13-49-210Q398-4 391-23q-28-83-97-132-69-49-138-50-45 0-79 22-34 22-34 66 0 22 7 37 7 15 19 22 12 7 20 10 8 3 17 3 44 0 44-42 0-20-12-35-12-15-23-20-11-5-13-5l-3-1q2-5 19-12 17-7 34-7h8q17 0 26 2 33 9 61 38 28 29 43 62 15 33 23 56 8 23 8 30l-6-4q-6-4-19-11-13-7-26-12-20-5-39-5-46 0-81 22-35 22-46 71-1 7-1 31 0 57 35 149 35 92 35 117 0 1 0 2 0 9 0 12 0 3-4 7-4 4-11 4h-4q-23 0-42-19-19-19-30-41-11-22-17-42-6-20-8-22-2-2-16-2H27q-6 6-6 9z"/><path id="B" d="M94 250Q94 319 104 381T127 488T164 576T202 643T244 695T277 729T302 750H315H319Q333 750 333 741Q333 738 316 720T275 667T226 581T184 443T167 250T184 58T225 -81T274 -167T316 -220T333 -241Q333 -250 318 -250H315H302L274 -226Q180 -141 137 -14T94 250Z"/><path id="C" d="M52 289q7 42 54 97 47 55 116 56 35 0 64-18 29-18 43-45 42 63 101 63 37 0 64-22 27-22 28-59 0-29-14-47-14-18-27-22-13-4-23-4-19 0-31 11-12 11-12 29 0 46 50 63-11 13-40 13-13 0-19-2-38-16-56-66-60-221-60-258 0-28 16-40 16-12 35-12 37 0 73 33 36 33 49 81 3 10 6 11 3 1 16 2h4q15 0 15-8 0-1-2-11-16-57-62-101-46-44-107-44-70 0-106 63-41-62-94-62h-6q-49 0-70 26-21 26-22 55 0 32 19 52 19 20 45 20 43 0 43-42 0-20-12-35-12-15-23-20-11-5-13-5l-3-1q0-1 6-4 6-3 16-7 10-4 19-3 36 0 62 45 9 16 23 68 14 52 28 108 14 56 16 66 5 27 5 39 0 28-15 40-15 12-34 12-40 0-75-32-35-32-49-82-2-9-5-10-3-1-16-2H58q-6 6-6 11z"/><path id="D" d="M60 749l4 1q5 0 10 0h12l28-24q94-85 137-212 43-127 43-264 0-68-10-131-10-63-23-107-13-44-37-88-24-44-38-67-14-23-41-51-27-28-32-33-5-5-23-19-3-3-4-4H74q-8 0-11 0-3 0-5 3-2 3-3 9 1 1 11 13Q221-64 221 250q0 314-155 475-10 12-11 13 0 8 5 11z"/><path id="E" d="M56 347q0 13 14 20h637q15-8 15-20 0-11-14-19l-318-1H72q-16 5-16 20zm0-194q0 15 16 20h636q14-10 14-20 0-13-15-20H70q-14 7-14 20z"/><path id="F" d="M618-943l-6-6h-30l-14 6q-96 40-157 102-61 62-79 138-5 21-5 50 0 29-2 303-1 322-2 332-6 42-22 79-16 37-37 63-21 26-43 47-22 21-42 34-20 13-32 20-12 7-15 9-2 4-2 16 0 5 0 8 0 3 1 6 1 3 1 3 0 0 2 2 2 2 5 3 3 1 5 3 63 33 112 92 54 69 67 152 1 10 2 332 1 273 1 303 0 30 6 51 37 153 234 238l16 7h30l6-6v-15q0-16-2-18l-8-5q-9-4-23-13-14-9-33-21-19-12-37-29-18-17-36-38-18-21-30-48-12-27-20-57-4-20-4-48 0-28-2-301-1-272-1-302 0-30-6-51-9-39-28-74-19-35-42-60-23-25-49-46-26-21-47-34-21-13-36-20-15-7-17-10l-9-3 17-9q85-42 140-104 55-62 71-135 5-21 5-51 0-30 2-301 0-48 0-123 1-205 5-222 1-3 1-5 5-23 14-44 9-21 22-39 13-18 26-34 13-16 28-29 15-13 29-23 14-10 26-18 12-8 21-13 9-5 15-9l6-2q2-2 2-18v-15z"/><path id="G" d="M96 585q56 81 153 81 48 0 96-26 48-26 78-92 37-83 37-228 0-155-43-237-20-42-55-67-35-25-61-31-26-6-51-7-26 0-52 6-26 6-61 32-35 26-55 67-43 82-43 237 0 174 57 265zm225 12q-30 32-71 32-42 0-72-32-25-26-33-72-8-46-8-192 0-158 8-208 8-50 36-79 28-30 69-30 40 0 68 30 29 30 36 84 7 54 8 203 0 145-8 191-8 46-33 73z"/><path id="H" d="M23 287q1 3 2 8 1 5 5 22 4 17 10 31 6 14 15 33 9 19 20 30 11 11 26 22 15 11 33 9 75 0 96-64l10 9q62 55 118 55 65 0 102-47 37-47 37-114 0-108-76-199-76-91-172-92-22 0-39 6-11 5-23 15-12 10-19 17l-7 8q-1-1-22-87-21-86-21-87 0-6 8-7 8-1 37-3h25q6-7 6-9 0-2-3-18-3-12-6-15-3-3-13-4-2 0-11 0-9 0-34 1-25 1-62 1-70 0-89-2h-8q-7 7-7 11 2 27 13 35h20q34 1 39 12 3 6 61 239 58 233 61 247 1 5 1 14 0 41-25 41-22 0-37-28-15-28-23-61-8-33-12-36-2-2-16-2H29q-6 6-6 9zm155-185q22-76 74-76 30 0 58 23 28 23 46 58 18 34 36 108 18 74 19 110v6q0 74-61 74-11 0-22-3-11-3-22-9-11-6-20-13-9-7-17-15-8-8-15-15-7-7-11-14-4-7-8-10l-3-4q0-1-3-14-3-13-11-44-8-31-14-52-26-106-26-110z"/><path id="I" d="M21 287q1 6 3 16 2 10 12 38 10 28 20 47 10 19 32 37 22 18 44 17 22-1 43-7 21-6 30-18 9-12 16-22 7-10 8-19l2-7q0-2 1-2l11 11q60 64 141 64 17 0 31-2 14-2 26-7 12-5 19-10 7-5 15-12 8-7 10-13 2-6 8-13 6-7 4-12-2-5 3-9 5-4 2-7l8 10q63 75 149 75 54 0 87-27 33-27 34-79 0-51-38-158-38-107-38-128 1-14 5-19 4-5 15-5 28 0 52 30 24 30 39 82 3 11 6 13 3 2 16 2 20 0 20-8 0-1-4-15-8-29-22-57-14-28-46-56-32-28-69-27-47 0-68 27-21 27-21 56 0 19 36 120 36 101 37 152 0 59-44 59h-5q-86 0-145-101l-7-12-33-134Q433 26 428 16q-13-27-43-27-13 0-21 7-8 7-11 12-3 5-3 10 0 11 34 143l36 146q3 15 3 38 0 59-44 59h-5q-86 0-145-101l-7-12-33-134Q156 26 151 16q-13-27-43-27-13 0-21 6-8 6-11 12-3 6-2 10 0 13 38 164 39 154 39 161 3 15 3 27 0 36-25 36-22 0-37-28-15-28-23-61-8-33-12-36-2-2-16-2H27q-6 6-6 9z"/><path id="J" d="M184 600q0 24 19 42 19 18 44 19 18 0 30-12 12-12 13-30 0-23-20-42-20-19-44-20-15 0-28 10-13 10-14 33zM21 287q0 8 9 31 9 23 24 51 15 28 44 51 29 23 60 22 39 0 65-23 26-23 27-62 0-17-14-56-14-39-40-105-26-66-42-113-5-22-5-32 0-25 17-25 9 0 19 3 10 3 23 14 13 11 27 35 14 24 25 59 3 12 5 14 2 2 17 2 20 0 20-10 0-8-9-31-9-23-25-51-16-28-45-50-29-22-62-22-32 0-59 21-27 21-28 64 0 17 5 32 5 15 43 114 38 101 44 121 6 20 7 39 0 24-17 24h-2q-30 0-55-33-25-33-38-84-1-1-2-3-1-2-1-3 0-1-2-2-2-1-3-1-1 0-4 0-3 0-8 0H27q-6 6-6 9z"/><path id="K" d="M83 616q0 8 6 14 6 6 10 6 8 0 154-68 146-68 290-137 144-69 144-70 7-5 7-15 0-10-7-15-2-2-292-139L107 56h-6q-18 2-18 20 0 1 0 3-1 7 15 16 19 10 150 72 78 37 130 61l248 118-266 126q-69 33-160 76-88 41-102 49-14 8-15 19zm1-734q0 10 15 20h579q16-6 16-20 0-12-15-20H98q-14 7-14 20z"/><path id="L" d="M213 578l-13-5q-14-5-40-10-26-5-58-7H83v46h19q47 2 87 15 40 13 56 24 16 11 28 22 2 3 12 3 9 0 17-6V361l1-300q7-7 12-9 5-2 24-4 19-2 62-2h26V0h-11q-21 3-159 3-136 0-157-3H88v46h26q22 0 38 0 16 0 25 1 9 1 16 3 7 2 8 2 1 0 6 5 5 5 6 4v517z"/><path id="M" d="M28 218q0 55 20 100 20 45 50 73 30 28 65 42 35 14 66 15 53 0 91-18 38-18 58-50 20-32 28-64 8-32 9-71 0-7-7-14H126v-15q0-148 100-180 20-6 44-6 42 0 72 32 17 17 27 42l10 24q3 3 16 3h3q17 0 17-10 0-4-3-13-19-55-63-87-44-32-99-32-95 0-158 69-63 69-64 160zm305 57q-11 128-95 136h-2q-8 0-16-1-8-1-25-8-17-7-29-21-12-14-23-41-11-27-16-66v-7h206v8z"/><path id="N" d="M42 46h14q39 0 47 14v8q0 9 0 23 0 14 0 33 0 19 1 43 1 24 0 50-1 26 0 55 1 29 0 57 0 37 0 78 0 41 0 75 0 34 0 60 0 26-1 44-1 18 0 17-3 19-14 25-11 6-45 9H26v23q0 23 2 23l10 1q10 1 29 2 19 1 37 2 17 1 37 2 20 1 30 3 10 2 11 1h3V379q0-317 1-319 4-8 12-11 21-3 49-3h16V0h-8l-23 1q-23 1-49 1-26 0-38 1-12 1-38 0-26-1-50-2L34 0h-8v46h16z"/><path id="O" d="M295 316q0 40-27 69-27 29-78 29-36 0-62-13-30-19-30-52-1-5 0-13 1-8 16-24 15-16 43-25 18-5 44-9 26-4 44-9 18-5 32-13 17-8 33-20 16-12 32-41 16-29 17-62 0-62-38-102-38-40-123-41h-8q-52 0-96 36l-8-7-9-9Q71 4 65-1L54-11h-8-4q-3 0-9 6v79 58q0 21 2 25 2 4 10 5h9q12 0 16-4 4-4 5-12 1-8 7-27 6-19 19-42 35-51 97-51 97 0 97 78 0 29-18 47-20 24-83 36-63 12-83 23-36 17-57 46-21 29-21 62 0 39 17 66 17 27 43 40 26 13 50 18 24 5 44 5h11q40 0 70-15l15-8 9 7q10 9 22 17h8 4q3 0 9-6V310l-6-6h-28q-6 6-6 12z"/></defs><g transform="scale(1 -1)"><use xlink:href="#A"/><g transform="translate(490)"><use xlink:href="#B"/><use xlink:href="#C" x="389"/><use xlink:href="#D" x="961"/></g><use xlink:href="#E" x="2117.8"/><g transform="translate(3173.6)"><use xlink:href="#F"/><g transform="translate(750)"><g transform="translate(0 647.3)"><use xlink:href="#G"/><use xlink:href="#H" x="1500"/><use xlink:href="#I" x="2003"/><use xlink:href="#J" x="2881"/><use xlink:href="#K" x="3503.8"/><g transform="translate(4559.6)"><use xlink:href="#L"/><use xlink:href="#G" x="500"/></g></g><g transform="translate(0 -647.3)"><use xlink:href="#L"/><g transform="translate(1500)"><use xlink:href="#M"/><use xlink:href="#N" x="444"/><use xlink:href="#O" x="722"/><use xlink:href="#M" x="1116"/></g></g></g></g></g></svg>

<?xml version="1.0" encoding="UTF-8" standalone="no" ?>
<svg xmlns="http://www.w3.org/2000/svg" width="171.640px" height="43.424px" viewBox="0 -1449.5 9483.1 2399" xmlns:xlink="http://www.w3.org/1999/xlink"><defs><path id="MJX-57-TEX-I-79" d="M21 287Q21 301 36 335T84 406T158 442Q199 442 224 419T250 355Q248 336 247 334Q247 331 231 288T198 191T182 105Q182 62 196 45T238 27Q261 27 281 38T312 61T339 94Q339 95 344 114T358 173T377 247Q415 397 419 404Q432 431 462 431Q475 431 483 424T494 412T496 403Q496 390 447 193T391 -23Q363 -106 294 -155T156 -205Q111 -205 77 -183T43 -117Q43 -95 50 -80T69 -58T89 -48T106 -45Q150 -45 150 -87Q150 -107 138 -122T115 -142T102 -147L99 -148Q101 -153 118 -160T152 -167H160Q177 -167 186 -165Q219 -156 247 -127T290 -65T313 -9T321 21L315 17Q309 13 296 6T270 -6Q250 -11 231 -11Q185 -11 150 11T104 82Q103 89 103 113Q103 170 138 262T173 379Q173 380 173 381Q173 390 173 393T169 400T158 404H154Q131 404 112 385T82 344T65 302T57 280Q55 278 41 278H27Q21 284 21 287Z"></path><path id="MJX-57-TEX-N-28" d="M94 250Q94 319 104 381T127 488T164 576T202 643T244 695T277 729T302 750H315H319Q333 750 333 741Q333 738 316 720T275 667T226 581T184 443T167 250T184 58T225 -81T274 -167T316 -220T333 -241Q333 -250 318 -250H315H302L274 -226Q180 -141 137 -14T94 250Z"></path><path id="MJX-57-TEX-I-78" d="M52 289Q59 331 106 386T222 442Q257 442 286 424T329 379Q371 442 430 442Q467 442 494 420T522 361Q522 332 508 314T481 292T458 288Q439 288 427 299T415 328Q415 374 465 391Q454 404 425 404Q412 404 406 402Q368 386 350 336Q290 115 290 78Q290 50 306 38T341 26Q378 26 414 59T463 140Q466 150 469 151T485 153H489Q504 153 504 145Q504 144 502 134Q486 77 440 33T333 -11Q263 -11 227 52Q186 -10 133 -10H127Q78 -10 57 16T35 71Q35 103 54 123T99 143Q142 143 142 101Q142 81 130 66T107 46T94 41L91 40Q91 39 97 36T113 29T132 26Q168 26 194 71Q203 87 217 139T245 247T261 313Q266 340 266 352Q266 380 251 392T217 404Q177 404 142 372T93 290Q91 281 88 280T72 278H58Q52 284 52 289Z"></path><path id="MJX-57-TEX-N-29" d="M60 749L64 750Q69 750 74 750H86L114 726Q208 641 251 514T294 250Q294 182 284 119T261 12T224 -76T186 -143T145 -194T113 -227T90 -246Q87 -249 86 -250H74Q66 -250 63 -250T58 -247T55 -238Q56 -237 66 -225Q221 -64 221 250T66 725Q56 737 55 738Q55 746 60 749Z"></path><path id="MJX-57-TEX-N-3D" d="M56 347Q56 360 70 367H707Q722 359 722 347Q722 336 708 328L390 327H72Q56 332 56 347ZM56 153Q56 168 72 173H708Q722 163 722 153Q722 140 707 133H70Q56 140 56 153Z"></path><path id="MJX-57-TEX-S3-7B" d="M618 -943L612 -949H582L568 -943Q472 -903 411 -841T332 -703Q327 -682 327 -653T325 -350Q324 -28 323 -18Q317 24 301 61T264 124T221 171T179 205T147 225T132 234Q130 238 130 250Q130 255 130 258T131 264T132 267T134 269T139 272T144 275Q207 308 256 367Q310 436 323 519Q324 529 325 851Q326 1124 326 1154T332 1205Q369 1358 566 1443L582 1450H612L618 1444V1429Q618 1413 616 1411L608 1406Q599 1402 585 1393T552 1372T515 1343T479 1305T449 1257T429 1200Q425 1180 425 1152T423 851Q422 579 422 549T416 498Q407 459 388 424T346 364T297 318T250 284T214 264T197 254L188 251L205 242Q290 200 345 138T416 3Q421 -18 421 -48T423 -349Q423 -397 423 -472Q424 -677 428 -694Q429 -697 429 -699Q434 -722 443 -743T465 -782T491 -816T519 -845T548 -868T574 -886T595 -899T610 -908L616 -910Q618 -912 618 -928V-943Z"></path><path id="MJX-57-TEX-N-30" d="M96 585Q152 666 249 666Q297 666 345 640T423 548Q460 465 460 320Q460 165 417 83Q397 41 362 16T301 -15T250 -22Q224 -22 198 -16T137 16T82 83Q39 165 39 320Q39 494 96 585ZM321 597Q291 629 250 629Q208 629 178 597Q153 571 145 525T137 333Q137 175 145 125T181 46Q209 16 250 16Q290 16 318 46Q347 76 354 130T362 333Q362 478 354 524T321 597Z"></path><path id="MJX-57-TEX-I-70" d="M23 287Q24 290 25 295T30 317T40 348T55 381T75 411T101 433T134 442Q209 442 230 378L240 387Q302 442 358 442Q423 442 460 395T497 281Q497 173 421 82T249 -10Q227 -10 210 -4Q199 1 187 11T168 28L161 36Q160 35 139 -51T118 -138Q118 -144 126 -145T163 -148H188Q194 -155 194 -157T191 -175Q188 -187 185 -190T172 -194Q170 -194 161 -194T127 -193T65 -192Q-5 -192 -24 -194H-32Q-39 -187 -39 -183Q-37 -156 -26 -148H-6Q28 -147 33 -136Q36 -130 94 103T155 350Q156 355 156 364Q156 405 131 405Q109 405 94 377T71 316T59 280Q57 278 43 278H29Q23 284 23 287ZM178 102Q200 26 252 26Q282 26 310 49T356 107Q374 141 392 215T411 325V331Q411 405 350 405Q339 405 328 402T306 393T286 380T269 365T254 350T243 336T235 326L232 322Q232 321 229 308T218 264T204 212Q178 106 178 102Z"></path><path id="MJX-57-TEX-I-6D" d="M21 287Q22 293 24 303T36 341T56 388T88 425T132 442T175 435T205 417T221 395T229 376L231 369Q231 367 232 367L243 378Q303 442 384 442Q401 442 415 440T441 433T460 423T475 411T485 398T493 385T497 373T500 364T502 357L510 367Q573 442 659 442Q713 442 746 415T780 336Q780 285 742 178T704 50Q705 36 709 31T724 26Q752 26 776 56T815 138Q818 149 821 151T837 153Q857 153 857 145Q857 144 853 130Q845 101 831 73T785 17T716 -10Q669 -10 648 17T627 73Q627 92 663 193T700 345Q700 404 656 404H651Q565 404 506 303L499 291L466 157Q433 26 428 16Q415 -11 385 -11Q372 -11 364 -4T353 8T350 18Q350 29 384 161L420 307Q423 322 423 345Q423 404 379 404H374Q288 404 229 303L222 291L189 157Q156 26 151 16Q138 -11 108 -11Q95 -11 87 -5T76 7T74 17Q74 30 112 181Q151 335 151 342Q154 357 154 369Q154 405 129 405Q107 405 92 377T69 316T57 280Q55 278 41 278H27Q21 284 21 287Z"></path><path id="MJX-57-TEX-I-69" d="M184 600Q184 624 203 642T247 661Q265 661 277 649T290 619Q290 596 270 577T226 557Q211 557 198 567T184 600ZM21 287Q21 295 30 318T54 369T98 420T158 442Q197 442 223 419T250 357Q250 340 236 301T196 196T154 83Q149 61 149 51Q149 26 166 26Q175 26 185 29T208 43T235 78T260 137Q263 149 265 151T282 153Q302 153 302 143Q302 135 293 112T268 61T223 11T161 -11Q129 -11 102 10T74 74Q74 91 79 106T122 220Q160 321 166 341T173 380Q173 404 156 404H154Q124 404 99 371T61 287Q60 286 59 284T58 281T56 279T53 278T49 278T41 278H27Q21 284 21 287Z"></path><path id="MJX-57-TEX-N-2265" d="M83 616Q83 624 89 630T99 636Q107 636 253 568T543 431T687 361Q694 356 694 346T687 331Q685 329 395 192L107 56H101Q83 58 83 76Q83 77 83 79Q82 86 98 95Q117 105 248 167Q326 204 378 228L626 346L360 472Q291 505 200 548Q112 589 98 597T83 616ZM84 -118Q84 -108 99 -98H678Q694 -104 694 -118Q694 -130 679 -138H98Q84 -131 84 -118Z"></path><path id="MJX-57-TEX-N-31" d="M213 578L200 573Q186 568 160 563T102 556H83V602H102Q149 604 189 617T245 641T273 663Q275 666 285 666Q294 666 302 660V361L303 61Q310 54 315 52T339 48T401 46H427V0H416Q395 3 257 3Q121 3 100 0H88V46H114Q136 46 152 46T177 47T193 50T201 52T207 57T213 61V578Z"></path><path id="MJX-57-TEX-N-65" d="M28 218Q28 273 48 318T98 391T163 433T229 448Q282 448 320 430T378 380T406 316T415 245Q415 238 408 231H126V216Q126 68 226 36Q246 30 270 30Q312 30 342 62Q359 79 369 104L379 128Q382 131 395 131H398Q415 131 415 121Q415 117 412 108Q393 53 349 21T250 -11Q155 -11 92 58T28 218ZM333 275Q322 403 238 411H236Q228 411 220 410T195 402T166 381T143 340T127 274V267H333V275Z"></path><path id="MJX-57-TEX-N-6C" d="M42 46H56Q95 46 103 60V68Q103 77 103 91T103 124T104 167T104 217T104 272T104 329Q104 366 104 407T104 482T104 542T103 586T103 603Q100 622 89 628T44 637H26V660Q26 683 28 683L38 684Q48 685 67 686T104 688Q121 689 141 690T171 693T182 694H185V379Q185 62 186 60Q190 52 198 49Q219 46 247 46H263V0H255L232 1Q209 2 183 2T145 3T107 3T57 1L34 0H26V46H42Z"></path><path id="MJX-57-TEX-N-73" d="M295 316Q295 356 268 385T190 414Q154 414 128 401Q98 382 98 349Q97 344 98 336T114 312T157 287Q175 282 201 278T245 269T277 256Q294 248 310 236T342 195T359 133Q359 71 321 31T198 -10H190Q138 -10 94 26L86 19L77 10Q71 4 65 -1L54 -11H46H42Q39 -11 33 -5V74V132Q33 153 35 157T45 162H54Q66 162 70 158T75 146T82 119T101 77Q136 26 198 26Q295 26 295 104Q295 133 277 151Q257 175 194 187T111 210Q75 227 54 256T33 318Q33 357 50 384T93 424T143 442T187 447H198Q238 447 268 432L283 424L292 431Q302 440 314 448H322H326Q329 448 335 442V310L329 304H301Q295 310 295 316Z"></path></defs><g stroke="currentColor" fill="currentColor" stroke-width="0" transform="matrix(1 0 0 -1 0 0)"><g data-mml-node="math"><g data-mml-node="mi"><use xlink:href="#MJX-57-TEX-I-79"></use></g><g data-mml-node="mrow" transform="translate(490, 0)"><g data-mml-node="mo"><use xlink:href="#MJX-57-TEX-N-28"></use></g><g data-mml-node="mi" transform="translate(389, 0)"><use xlink:href="#MJX-57-TEX-I-78"></use></g><g data-mml-node="mo" transform="translate(961, 0)"><use xlink:href="#MJX-57-TEX-N-29"></use></g></g><g data-mml-node="mo" transform="translate(2117.8, 0)"><use xlink:href="#MJX-57-TEX-N-3D"></use></g><g data-mml-node="mrow" transform="translate(3173.6, 0)"><g data-mml-node="mo"><use xlink:href="#MJX-57-TEX-S3-7B"></use></g><g data-mml-node="mtable" transform="translate(750, 0)"><g data-mml-node="mtr" transform="translate(0, 647.3)"><g data-mml-node="mtd"><g data-mml-node="mn"><use xlink:href="#MJX-57-TEX-N-30"></use></g><g data-mml-node="mstyle" transform="translate(500, 0)"><g data-mml-node="mspace"></g></g><g data-mml-node="mi" transform="translate(1500, 0)"><use xlink:href="#MJX-57-TEX-I-70"></use></g><g data-mml-node="mi" transform="translate(2003, 0)"><use xlink:href="#MJX-57-TEX-I-6D"></use></g><g data-mml-node="mi" transform="translate(2881, 0)"><use xlink:href="#MJX-57-TEX-I-69"></use></g><g data-mml-node="mo" transform="translate(3503.8, 0)"><use xlink:href="#MJX-57-TEX-N-2265"></use></g><g data-mml-node="mn" transform="translate(4559.6, 0)"><use xlink:href="#MJX-57-TEX-N-31"></use><use xlink:href="#MJX-57-TEX-N-30" transform="translate(500, 0)"></use></g></g></g><g data-mml-node="mtr" transform="translate(0, -647.3)"><g data-mml-node="mtd"><g data-mml-node="mn"><use xlink:href="#MJX-57-TEX-N-31"></use></g><g data-mml-node="mstyle" transform="translate(500, 0)"><g data-mml-node="mspace"></g></g><g data-mml-node="mtext" transform="translate(1500, 0)"><use xlink:href="#MJX-57-TEX-N-65"></use><use xlink:href="#MJX-57-TEX-N-6C" transform="translate(444, 0)"></use><use xlink:href="#MJX-57-TEX-N-73" transform="translate(722, 0)"></use><use xlink:href="#MJX-57-TEX-N-65" transform="translate(1116, 0)"></use></g></g></g></g><g data-mml-node="mo" transform="translate(6309.6, 0)"></g></g></g></g></svg>
